artwork/resources/intui/icons/shell/toolbar/sdk-manager@20x20.svg

<svg width="20" height="20" viewBox="0 0 20 20" fill="none" xmlns="http://www.w3.org/2000/svg">
<path d="M2 5.00002L9 8L16 5" stroke="#6C707E" stroke-width="1.5"/>
<path fill-rule="evenodd" clip-rule="evenodd" d="M8.49044 2.04882C8.81472 1.90405 9.18528 1.90405 9.50956 2.04882L14.5096 4.28097C14.96 4.48204 15.25 4.92915 15.25 5.42239V7.5H16.75V5.42239C16.75 4.33727 16.1119 3.35361 15.121 2.91126L10.121 0.679117C9.40761 0.360623 8.59239 0.360623 7.87896 0.679118L2.87896 2.91126C1.8881 3.35361 1.25 4.33727 1.25 5.42239V11.5776C1.25 12.6627 1.8881 13.6464 2.87896 14.0887L7.87896 16.3209C8.59239 16.6394 9.40761 16.6394 10.121 16.3209L11 15.9285V14.2858L9.50956 14.9512C9.18528 15.0959 8.81472 15.0959 8.49044 14.9512L3.49044 12.719C3.04004 12.518 2.75 12.0708 2.75 11.5776V5.42239C2.75 4.92915 3.04004 4.48204 3.49044 4.28097L8.49044 2.04882Z" fill="#6C707E"/>
<path d="M9 8V16" stroke="#6C707E" stroke-width="1.5"/>
<path d="M16 10V16.5" stroke="#6C707E" stroke-width="1.5" stroke-linecap="round"/>
<path d="M13 15L16 18L19 15" stroke="#6C707E" stroke-width="1.5" stroke-linecap="round"/>
</svg>

<svg width="20" height="20" viewBox="0 0 20 20" fill="none" xmlns="http://www.w3.org/2000/svg"><path d="M2 5l7 3 7-3" stroke="#6C707E" stroke-width="1.5"/><path fill-rule="evenodd" clip-rule="evenodd" d="M8.49 2.049a1.25 1.25 0 0 1 1.02 0l5 2.232c.45.201.74.648.74 1.141V7.5h1.5V5.422a2.75 2.75 0 0 0-1.629-2.51l-5-2.233a2.75 2.75 0 0 0-2.242 0l-5 2.232A2.75 2.75 0 0 0 1.25 5.422v6.156a2.75 2.75 0 0 0 1.629 2.51l5 2.233a2.75 2.75 0 0 0 2.242 0l.879-.393v-1.642l-1.49.665a1.25 1.25 0 0 1-1.02 0l-5-2.232a1.25 1.25 0 0 1-.74-1.141V5.422c0-.493.29-.94.74-1.141l5-2.232z" fill="#6C707E"/><path d="M9 8v8" stroke="#6C707E" stroke-width="1.5"/><path d="M16 10v6.5M13 15l3 3 3-3" stroke="#6C707E" stroke-width="1.5" stroke-linecap="round"/></svg>
